logos/origami.svg

<?xml version="1.0" encoding="UTF-8"?>
<svg width="256px" height="256px" viewBox="0 0 256 256" version="1.1" xmlns="http://www.w3.org/2000/svg" xmlns:xlink="http://www.w3.org/1999/xlink" preserveAspectRatio="xMidYMid">
    <defs>
        <radialGradient cx="26.1956818%" cy="9.36015909%" fx="26.1956818%" fy="9.36015909%" r="105.50989%" gradientTransform="translate(0.261957,0.093602),scale(1.000000,0.996094),rotate(58.071241),translate(-0.261957,-0.093602)" id="radialGradient-1">
            <stop stop-color="#51C3F7" offset="0%"></stop>
            <stop stop-color="#046CF4" offset="100%"></stop>
        </radialGradient>
        <path d="M127.754545,256 C198.171057,256 255.254545,198.692655 255.254545,128 C255.254545,57.3075782 198.171057,0 127.754545,0 C57.3382659,0 0.254545455,57.3075782 0.254545455,128 C0.254545455,198.692655 57.3382659,256 127.754545,256 Z" id="path-2"></path>
        <radialGradient cx="-15.3135%" cy="-13.6326789%" fx="-15.3135%" fy="-13.6326789%" r="181.00096%" gradientTransform="translate(-0.153135,-0.136327),scale(1.000000,0.909547),rotate(15.269975),translate(0.153135,0.136327)" id="radialGradient-4">
            <stop stop-color="#FFFFFF" offset="0%"></stop>
            <stop stop-color="#5CB5FF" offset="100%"></stop>
        </radialGradient>
        <radialGradient cx="69.5505569%" cy="-14.976051%" fx="69.5505569%" fy="-14.976051%" r="205.050435%" gradientTransform="translate(0.695506,-0.149761),scale(1.000000,0.576945),rotate(117.132184),translate(-0.695506,0.149761)" id="radialGradient-5">
            <stop stop-color="#FFFFFF" offset="0%"></stop>
            <stop stop-color="#7AC2FF" offset="100%"></stop>
        </radialGradient>
        <radialGradient cx="40.0708592%" cy="19.9807672%" fx="40.0708592%" fy="19.9807672%" r="98.9201276%" gradientTransform="translate(0.400709,0.199808),scale(1.000000,0.667344),rotate(59.049023),translate(-0.400709,-0.199808)" id="radialGradient-6">
            <stop stop-color="#FFFFFF" offset="0%"></stop>
            <stop stop-color="#CBE7FF" offset="100%"></stop>
        </radialGradient>
    </defs>
    <g>
        <path d="M127.754545,256 C198.171057,256 255.254545,198.692655 255.254545,128 C255.254545,57.3075782 198.171057,0 127.754545,0 C57.3382659,0 0.254545455,57.3075782 0.254545455,128 C0.254545455,198.692655 57.3382659,256 127.754545,256 Z" fill="url(#radialGradient-1)"></path>
        <mask id="mask-3" fill="white">
            <use xlink:href="#path-2"></use>
        </mask>
        <g></g>
        <polygon fill="#E8F5FF" mask="url(#mask-3)" points="136.981818 58.7636364 194.745455 119.854545 144.988659 108.218182"></polygon>
        <path d="M138.3786,67.2429818 L152.9036,110.235982 L144.692567,108.218182 L138.3786,67.2429818 Z" fill="#64A4D8" mask="url(#mask-3)"></path>
        <polygon fill="url(#radialGradient-4)" mask="url(#mask-3)" points="21.3636364 140.8 -94 13.9636364 6.17220664 35.9065018"></polygon>
        <polygon fill="url(#radialGradient-5)" mask="url(#mask-3)" points="159.487855 196.996655 136.503324 58.7636364 79.7349818 127.880145"></polygon>
        <path d="M89.1156364,116.735418 L124.051636,160.199418 L86.3636364,120.145455 L89.1156364,116.735418 Z" fill="#4492D2" mask="url(#mask-3)"></path>
        <polygon fill="url(#radialGradient-6)" mask="url(#mask-3)" points="56.7247255 335.584582 -40.5537164 108.739491 4.62124364 35.4909091 159.711855 197.174109"></polygon>
    </g>
</svg>

<svg width="256" height="256" xmlns="http://www.w3.org/2000/svg" xmlns:xlink="http://www.w3.org/1999/xlink" preserveAspectRatio="xMidYMid">
	<defs>
		<radialGradient cx="26.196%" cy="9.36%" fx="26.196%" fy="9.36%" r="105.51%" gradientTransform="scale(1 .9961) rotate(58.071 .262 .094)" id="a">
			<stop stop-color="#51C3F7" offset="0%"/>
			<stop stop-color="#046CF4" offset="100%"/>
		</radialGradient>
		<radialGradient cx="-15.313%" cy="-13.633%" fx="-15.313%" fy="-13.633%" r="181.001%" gradientTransform="scale(1 .90955) rotate(15.27 -.103 -.143)" id="d">
			<stop stop-color="#FFF" offset="0%"/>
			<stop stop-color="#5CB5FF" offset="100%"/>
		</radialGradient>
		<radialGradient cx="69.551%" cy="-14.976%" fx="69.551%" fy="-14.976%" r="205.05%" gradientTransform="matrix(-.45604 .51346 -.88996 -.26311 .88 -.546)" id="e">
			<stop stop-color="#FFF" offset="0%"/>
			<stop stop-color="#7AC2FF" offset="100%"/>
		</radialGradient>
		<radialGradient cx="40.071%" cy="19.981%" fx="40.071%" fy="19.981%" r="98.92%" gradientTransform="matrix(.5143 .57232 -.8576 .34322 .366 -.098)" id="f">
			<stop stop-color="#FFF" offset="0%"/>
			<stop stop-color="#CBE7FF" offset="100%"/>
		</radialGradient>
		<path d="M127.755 256c70.416 0 127.5-57.307 127.5-128 0-70.692-57.084-128-127.5-128C57.338 0 .255 57.308.255 128c0 70.693 57.083 128 127.5 128Z" id="b"/>
	</defs>
	<path d="M127.755 256c70.416 0 127.5-57.307 127.5-128 0-70.692-57.084-128-127.5-128C57.338 0 .255 57.308.255 128c0 70.693 57.083 128 127.5 128Z" fill="url(#a)"/>
	<mask id="c" fill="#fff">
		<use xlink:href="#b"/>
	</mask>
	<path fill="#E8F5FF" mask="url(#c)" d="m136.982 58.764 57.763 61.09-49.756-11.636z"/>
	<path d="m138.379 67.243 14.525 42.993-8.211-2.018-6.314-40.975Z" fill="#64A4D8" mask="url(#c)"/>
	<path fill="url(#d)" mask="url(#c)" d="M21.364 140.8-94 13.964 6.172 35.907z"/>
	<path fill="url(#e)" mask="url(#c)" d="M159.488 196.997 136.503 58.764 79.735 127.88z"/>
	<path d="m89.116 116.735 34.936 43.464-37.688-40.054 2.752-3.41Z" fill="#4492D2" mask="url(#c)"/>
	<path fill="url(#f)" mask="url(#c)" d="m56.725 335.585-97.279-226.846L4.621 35.491l155.09 161.683z"/>
</svg>
